X:1
T:081 - Amor Incomparável
T:Letra:  Johnson Oatman Jr. (1856-1929)
T:Trad.: Albert Lafayette Dunstan (1869 - 1937)
T:Música: George C. Hugg (1848-1907)
M:4/4
L:1/8
K:F
V:1
"F"A2 A>G F2 F>E | "Bb"D2 F2 "F"DC z2 | A2 A2 "C"G2 z2 | A2 "C7"G2 "F"F2 z2 | "F"A2 A>G F2 F>E | "Bb"D2 F2 "F"DC z2 | A2 A2 "C"G2 z2 | A2 "C7"G2 "F"F2 z2 || "F"A2 c2 c2 d>c | A2 A2 GF z2 | A2 c2 c2 d>c | "G7"A2 A2 "C"G2 z2 | "F"A2 A>G F2 F>E | "Bb"D2 F2 "F"DC z2 | A2 A2 "C"G2 z2 | A2 "C7"G2 "F"F2 z2 |]
w: 1.~Ne-nhum a-mi-gohá i-gual a Cris-to! Não ne-nhum! Não ne-nhum! Ou-tro não há que mi-nhaal-ma sal-ve! Não, ne-nhum! Não, ne-nhum!     Cris-to sa-be das nos-sas lu-tas;    Gui-a-ráa-té o fim che-gar;                             Ne-nhum a-mi-gohá i-gual a Cris-to,            Não ne-nhum! Não, ne-nhum!
w: 2.~Ne-nhum mo-men-toe-le mea-ban-do-na! Não, ne-nhum! Não, ne-nhum! Não há des-gos-to que não sua-vi-ze! Não, ne-nhum! Não, ne-nhum!
w: 3.~Ne-nhum a-mi-gohá tão no-bree san-to! Não, ne-nhum! Não, ne-nhum! Tam-bém não há tão hu-mil-dee man-so! Não, ne-nhum! Não, ne-nhum!
w: 4.~Cren-te ne-nhum é de-sam-pa-ra-do! Não, ne-nhum! Não, ne-nhum! Ne-nhum an-sio-sohá queé re-jei-ta-do! Não, ne-nhum! Não, ne-nhum!
W: 
W:
W: 1. Nenhum amigo há igual a Cristo!
W: Não nenhum! Não nenhum!
W: Outro não há que minha alma salve!
W: Não, nenhum! Não, nenhum!
W: 
W:    (Estribilho)
W:    Cristo sabe das nossas lutas;
W:    Guiará até o fim chegar;                         
W:    Nenhum amigo há igual a Cristo,        
W:    Não nenhum! Não, nenhum!
W: 
W: 2. Nenhum momento ele me abandona!
W: Não, nenhum! Não, nenhum!
W: Não há desgosto que não suavize!
W: Não, nenhum! Não, nenhum!
W: 
W:
W:
W: 3. Nenhum amigo há tão nobre e santo!
W: Não, nenhum! Não, nenhum!
W: Também não há tão humilde e manso!
W: Não, nenhum! Não, nenhum!
W: 
W: 4. Crente nenhum é desamparado!
W: Não, nenhum! Não, nenhum!
W: Nenhum ansioso há que é rejeitado!
W: Não, nenhum! Não, nenhum!
W: 
W: 





